icons/mobile/24/svg/reading-list-add-24.svg

<svg width="24" height="24" viewBox="0 0 24 24" fill="none" xmlns="http://www.w3.org/2000/svg">
<path d="M19 15.0001C19.4832 15.0001 19.875 15.3918 19.875 15.8751V18.1251H22.125C22.6082 18.1251 23 18.5168 23 19.0001C22.9999 19.4833 22.6082 19.8751 22.125 19.8751H19.875V22.1251C19.8749 22.6083 19.4832 23.0001 19 23.0001C18.5168 23.0001 18.1251 22.6083 18.125 22.1251V19.8751H15.875C15.3918 19.8751 15.0001 19.4833 15 19.0001C15 18.5168 15.3918 18.1251 15.875 18.1251H18.125V15.8751C18.125 15.3918 18.5168 15.0001 19 15.0001Z" fill="black"/>
<path d="M5.19629 3.004C6.75819 2.95306 8.29426 3.40514 9.65918 4.29209C9.8661 4.42693 10.1339 4.42693 10.3408 4.29209C11.7037 3.40615 13.2378 2.96507 14.8057 3.004C15.1486 3.014 15.509 3.03169 15.877 3.05869C16.3749 3.09668 16.8518 3.14807 17.3037 3.21005C18.8406 3.42204 19.9998 4.7538 20 6.30966V13.0001H18.25V6.30966C18.2498 5.62495 17.7411 5.03859 17.0664 4.94541C16.6484 4.88741 16.207 4.8388 15.7471 4.8038C15.4071 4.7788 15.0768 4.762 14.7568 4.754C13.5489 4.71404 12.3589 5.06792 11.2939 5.75888C10.5089 6.27088 9.49105 6.27088 8.70605 5.75888C7.68813 5.09893 6.55116 4.75112 5.40625 4.75107C5.35229 4.75107 5.29908 4.752 5.24512 4.754C4.92312 4.762 4.59295 4.77978 4.25195 4.80478C3.79296 4.83978 3.35161 4.88741 2.93262 4.94541C2.25894 5.03858 1.75016 5.62395 1.75 6.30966V16.8028C1.75 17.4877 2.25879 18.0749 2.93359 18.1681C3.35157 18.2261 3.79296 18.2737 4.25293 18.3087C4.78993 18.3487 5.30306 18.3683 5.78906 18.3683C7.14404 18.3713 8.4832 18.7771 9.65918 19.5421C9.8661 19.6769 10.1339 19.6769 10.3408 19.5421C11.1628 19.0071 12.068 18.6574 13 18.4894V20.2911C12.406 20.4351 11.8279 20.6629 11.2939 21.0089C10.9009 21.2649 10.45 21.3927 10 21.3927C9.55 21.3927 9.09905 21.2649 8.70605 21.0089C7.8121 20.4289 6.8031 20.1213 5.78516 20.1183C5.26017 20.1173 4.70405 20.0978 4.12207 20.0538C3.62519 20.0168 3.14819 19.9664 2.69629 19.9044C1.15929 19.6924 0 18.3598 0 16.8038V6.30966C0.00015733 4.7538 1.15942 3.42204 2.69531 3.21005C3.14822 3.14907 3.62518 3.09666 4.12207 3.05966C4.49104 3.03067 4.85032 3.014 5.19629 3.004Z" fill="black"/>
<path d="M8.125 14.5001C8.608 14.5001 9 14.8921 9 15.3751C8.99993 15.858 8.60796 16.2501 8.125 16.2501H4.375C3.89204 16.2501 3.50007 15.858 3.5 15.3751C3.5 14.8921 3.892 14.5001 4.375 14.5001H8.125Z" fill="black"/>
<path d="M8.125 11.0001C8.608 11.0001 9 11.3921 9 11.8751C8.99993 12.358 8.60796 12.7501 8.125 12.7501H4.375C3.89204 12.7501 3.50007 12.358 3.5 11.8751C3.5 11.3921 3.892 11.0001 4.375 11.0001H8.125Z" fill="black"/>
<path d="M8.125 7.50009C8.608 7.50009 9 7.89209 9 8.37509C8.99993 8.85804 8.60796 9.25009 8.125 9.25009H4.375C3.89204 9.25009 3.50007 8.85804 3.5 8.37509C3.5 7.89209 3.892 7.50009 4.375 7.50009H8.125Z" fill="black"/>
</svg>

<!-- This Source Code Form is subject to the terms of the Mozilla Public
   - License, v. 2.0. If a copy of the MPL was not distributed with this
   - file, You can obtain one at http://mozilla.org/MPL/2.0/. -->
<svg xmlns="http://www.w3.org/2000/svg" width="24" height="24" fill="none" viewBox="0 0 24 24">
    <path fill="#000" d="M19 15c.483 0 .875.392.875.875v2.25h2.25a.875.875 0 1 1 0 1.75h-2.25v2.25a.875.875 0 0 1-1.75 0v-2.25h-2.25a.875.875 0 0 1 0-1.75h2.25v-2.25c0-.483.392-.875.875-.875M5.196 3.004c1.562-.05 3.098.401 4.463 1.288a.63.63 0 0 0 .682 0c1.363-.886 2.897-1.327 4.465-1.288a24 24 0 0 1 2.498.206A3.14 3.14 0 0 1 20 6.31V13h-1.75V6.31a1.38 1.38 0 0 0-1.184-1.365 21 21 0 0 0-2.31-.191c-1.207-.04-2.397.314-3.462 1.005a2.37 2.37 0 0 1-2.588 0c-1.018-.66-2.155-1.008-3.3-1.008q-.08 0-.16.003a21 21 0 0 0-2.313.191A1.38 1.38 0 0 0 1.75 6.31v10.493a1.38 1.38 0 0 0 1.184 1.365 21.5 21.5 0 0 0 2.855.2 7.13 7.13 0 0 1 3.87 1.174.63.63 0 0 0 .682 0A7.2 7.2 0 0 1 13 18.49v1.802a5.5 5.5 0 0 0-1.706.718 2.37 2.37 0 0 1-2.588 0 5.4 5.4 0 0 0-2.92-.89 23 23 0 0 1-3.089-.214A3.14 3.14 0 0 1 0 16.803V6.31a3.14 3.14 0 0 1 2.695-3.1 24 24 0 0 1 2.501-.206" />
    <path fill="#000" d="M8.125 14.5a.875.875 0 0 1 0 1.75h-3.75a.875.875 0 0 1 0-1.75zm0-3.5a.875.875 0 0 1 0 1.75h-3.75a.875.875 0 0 1 0-1.75zm0-3.5a.875.875 0 0 1 0 1.75h-3.75a.875.875 0 0 1 0-1.75z" />
</svg>
